openmetadata-ui/src/main/resources/ui/src/assets/svg/success-badge.svg

<svg viewBox="0 0 16 16" fill="none" xmlns="http://www.w3.org/2000/svg">
<path d="M15.2275 2.42919C15.0019 2.20324 14.6359 2.20285 14.4104 2.42823L7.47763 9.34269L4.97629 6.62601C4.76015 6.39139 4.39473 6.37618 4.15973 6.59229C3.92491 6.80842 3.90987 7.17402 4.12601 7.40882L7.03476 10.5678C7.14123 10.6836 7.29036 10.7508 7.44756 10.7541C7.45176 10.7542 7.45583 10.7542 7.45989 10.7542C7.61263 10.7542 7.75956 10.6936 7.86783 10.5857L15.2264 3.2465C15.4525 3.02115 15.4528 2.65515 15.2275 2.42919Z" fill="#28A745" stroke="#28A745" stroke-width="0.5"/>
<path d="M15.0888 7.42205C14.7696 7.42205 14.5109 7.68078 14.5109 7.99998C14.5109 11.5902 11.5903 14.5108 8.00004 14.5108C4.41001 14.5108 1.48915 11.5902 1.48915 7.99998C1.48915 4.40995 4.41001 1.48909 8.00004 1.48909C8.31924 1.48909 8.57797 1.2304 8.57797 0.91122C8.57797 0.592003 8.31924 0.333313 8.00004 0.333313C3.77259 0.333313 0.333374 3.77253 0.333374 7.99998C0.333374 12.2272 3.77259 15.6666 8.00004 15.6666C12.2273 15.6666 15.6667 12.2272 15.6667 7.99998C15.6667 7.68078 15.408 7.42205 15.0888 7.42205Z" fill="#28A745" stroke="#28A745" stroke-width="0.5"/>
</svg>

<svg xmlns="http://www.w3.org/2000/svg" fill="none" viewBox="0 0 16 16"><path fill="#28A745" stroke="#28A745" stroke-width=".5" d="M15.227 2.43a.578.578 0 0 0-.817-.002L7.478 9.343 4.976 6.626a.578.578 0 0 0-.85.783l2.909 3.159a.577.577 0 0 0 .413.186h.012c.153 0 .3-.06.408-.168l7.358-7.34a.578.578 0 0 0 .001-.817Z"/><path fill="#28A745" stroke="#28A745" stroke-width=".5" d="M15.089 7.422A.578.578 0 0 0 14.51 8c0 3.59-2.92 6.51-6.511 6.51-3.59 0-6.51-2.92-6.51-6.51S4.41 1.49 8 1.49A.578.578 0 1 0 8 .332C3.773.333.333 3.773.333 8S3.773 15.667 8 15.667s7.667-3.44 7.667-7.667a.578.578 0 0 0-.578-.578Z"/></svg>
